!!!COM: Corelli, Arcangelo
!!!OTL: Sonate a tre [in e]
!!!XEN: Trio Sonata Opus 1, No. 2
!!!OPS: Opus 1
!!!ONM: No. 2
!!!OMV: Movement 4.
!!!YEC: Copyright 1994, Center for Computer Assisted Research in the Humanities
!!!YEM: Rights to all derivative electronic formats reserved.
!!!YEM: Refer to licensing agreement for further details.
!! For the following instrumentation: Violino I & II, Violone/Archlute,
!!    and Organo.
!!!ONB1: Source gives first time signature as sign of imperfection 
!!!ONB2: ("common time") preceding 3/8 (i.e. "C 3/8"). 
!! Allegro.
**kern	**kern	**kern	**kern
*ICklav	*ICstr	*ICstr	*ICstr
*Iorgan	*Icello	*Ivioln	*Ivioln
*	*Iarchl	*	*
!Organo	!Violone	!Violin 2	!Violin 1
!	! or	!	!
!	!Archlute	!	!
*>[A,A]	*>[A,A]	*>[A,A]	*>[A,A]
*>A	*>A	*>A	*>A
*clefF4	*clefF4	*clefG2	*clefG2
*k[f#]	*k[f#]	*k[f#]	*k[f#]
*e:	*e:	*e:	*e:
*M3/8	*M3/8	*M3/8	*M3/8
*MM90	*MM90	*MM90	*MM90
=1-	=1-	=1-	=1-
4.E\	4.r	4.r	8r
.	.	.	8r
.	.	.	8bb\
=2	=2	=2	=2
4.E\	4.r	4.r	(8ee\L
.	.	.	8ff#\)
.	.	.	8gg\J
=3	=3	=3	=3
4.D#\	4.r	4.r	(8ff#\L
.	.	.	8gg\)
.	.	.	8aa\J
=4	=4	=4	=4
4.E\	4.r	4.r	(8gg\L
.	.	.	8ff#\)
.	.	.	8ee\J
=5	=5	=5	=5
8D\L	4.r	8r	4bb\
8E\	.	8r	.
8F#\J	.	8ff#\	8aa#\
=6	=6	=6	=6
8G\L	4.r	(8b\L	4.bb\
8F#\	.	8cc#\)	.
8E\J	.	8dd\J	.
=7	=7	=7	=7
4F#\	4.r	(8cc#\L	4.aa#\
.	.	8dd\)	.
8FF#/	.	8ee\J	.
=8	=8	=8	=8
4.BB/	4.r	(8dd\L	4.bb\
.	.	8cc#\)	.
.	.	8b\J	.
=9	=9	=9	=9
8r	4.r	4ee\	4gg\
8r	.	.	.
8B\	.	8dd#\	8ff#\
=10	=10	=10	=10
4E\	4.r	4ee\	4gg\
8r	.	8b\	8ff#\
=11	=11	=11	=11
8r	8r	4ee\	4gg\
8r	8r	.	.
8B\	8B\	8dd#\	8ff#\
=12	=12	=12	=12
4.E\	8E\L	4ee\	4.gg\
.	8F#\	.	.
.	8G\J	8ee\	.
=13	=13	=13	=13
4.F#\	8F#\L	4ee\	8r
.	8G\	.	8r
.	8A\J	8dd#\	8ff#\
=14	=14	=14	=14
8G\L	8G\L	4.ee\	(8bb\L
8F#\	8F#\	.	8aa\)
8E\J	8E\J	.	8gg\J
=15	=15	=15	=15
4.D#\	4.D#\	4.ff#\	(8aa\L
.	.	.	8gg\)
.	.	.	8ff#\J
=16	=16	=16	=16
4E\	4E\	8r	(8gg\L
.	.	8r	8ee\)
8D\	8r	8b\	8ff#\J
=17	=17	=17	=17
8C/L	4.r	(8ee\L	4gg\
8BB/	.	8dd\)	.
8AA/J	.	8cc\J	8r
=18	=18	=18	=18
8BB/L	4.r	(8dd\L	8r
8AA/	.	8cc\)	8r
8GG/J	.	8b\J	8ee\
=19	=19	=19	=19
4.FF#/	4.r	4cc#\	(8aa\L
.	.	.	8gg\)
.	.	8dd#\	8ff#\J
=20	=20	=20	=20
4EE/	8r	(8ee\L	(8gg\L
.	8r	8ff#\)	8ff#\)
8E\	8E\	8gg\J	8ee\J
=21	=21	=21	=21
8B\L	8B\L	4ff#\	4dd#\
8A\	8A\	.	.
8G\J	8G\J	8gg\	8ee\
=22	=22	=22	=22
4A\	4A\	4ff#\	4ee\
8B\	8B\	8b\	8dd#\
=23	=23	=23	=23
8G\L	8G\L	(8e/L	4.ee\
8F#\	8F#\	8f#/)	.
8E\J	8E\J	8g/J	.
=24	=24	=24	=24
4.D#\	4.D#\	(8f#/L	4.r
.	.	8g/)	.
.	.	8a/J	.
=25	=25	=25	=25
8E\L	8E\L	(8g/L	4.r
8D\	8D\	8f#/)	.
8C\J	8C\J	8e/J	.
=26	=26	=26	=26
8BB\L	8BB\L	4b\	8r
8B\	8B\	.	8r
8A\J	8A\J	8cc#\	8ff#\
=27	=27	=27	=27
8G\L	8G\L	(8dd\L	(8b\L
8A\	8A\	8cc#\)	8cc#\)
8B\J	8B\J	8b\J	8dd\J
=28	=28	=28	=28
4F#\	4F#\	4b\	(8cc#\L
.	.	.	8dd\)
8FF#/	8FF#/	8a#/	8ee\J
=29	=29	=29	=29
4.BB/	4.BB/	4.b\	(8dd\L
.	.	.	8cc#\)
.	.	.	8b\J
=30	=30	=30	=30
8r	8r	4ee\	4gg\
8r	8r	.	.
8B\	8B\	8dd#\	8ff#\
=31	=31	=31	=31
4.E\	8E\L	4ee\	(8gg\L
.	8F#\	.	8aa\)
.	8G\J	8ee\	8bb\J
=32	=32	=32	=32
4.F#\	8F#\L	4ee\	(8aa\L
.	8G\	.	8gg\)
.	8A\J	8dd#\	8ff#\J
=33	=33	=33	=33
4.E\	8G\L	(8ee\L	4.gg\
.	8F#\	8dd\)	.
.	8E\J	8ee\J	.
=34	=34	=34	=34
4.AA/	4.AA/	4.cc#\	(8aa\L
.	.	.	8gg\)
.	.	.	8aa\J
=35	=35	=35	=35
4.D\	4.D\	(8dd\L	4.ff#\
.	.	8cc\)	.
.	.	8dd\J	.
=36	=36	=36	=36
4.GG/	4.GG/	4.b\	(8gg\L
.	.	.	8ff#\)
.	.	.	8gg\J
=37	=37	=37	=37
4C/	4C/	(8cc\L	(8ee\L
.	.	8dd\)	8ff#\)
8GG/	8GG/	8b\J	8gg\J
=38	=38	=38	=38
4D\	4D\	4a/	4gg\
8DD/	8DD/	8a/	8ff#\
=39	=39	=39	=39
4.GG/	4.GG/	4.g/	4gg\
.	.	.	8b\
=40	=40	=40	=40
8G\L	8G\L	4.r	(8e/L
8F#\	8F#\	.	8f#/)
8E\J	8E\J	.	8g/J
=41	=41	=41	=41
4.D#\	4.D#\	4.r	(8f#/L
.	.	.	8g/)
.	.	.	8a/J
=42	=42	=42	=42
8E\L	8E\L	4.r	(8g/L
8D\	8D\	.	8f#/)
8C\J	8C\J	.	8e/J
=43	=43	=43	=43
8BB\L	8BB\L	8r	4b\
8B\	8B\	8r	.
8A\J	8A\J	8ff#\	8cc#\
=44	=44	=44	=44
8G\L	8G\L	(8b\L	(8dd\L
8A\	8A\	8cc#\)	8cc#\)
8B\J	8B\J	8dd\J	8b\J
=45	=45	=45	=45
4F#\	4F#\	(8cc#\L	4b\
.	.	8dd\)	.
8FF#/	8FF#/	8ee\J	8a#/
=46	=46	=46	=46
4.BB/	4.BB/	(8dd\L	4.b\
.	.	8cc#\)	.
.	.	8b\J	.
=47	=47	=47	=47
4.D#\	4.D#\	[4.ff#\	4.r
=48	=48	=48	=48
4.E\	4.E\	8ff#\L]	[4.gg\
.	.	8ee\	.
.	.	8dd#\J	.
=49	=49	=49	=49
4.C#/	4.C#/	[4.ee\	8gg\L]
.	.	.	(8aa\
.	.	.	8gg\J)
=50	=50	=50	=50
4.D\	4.D\	8ee\L]	4.ff#\
.	.	8dd\	.
.	.	8cc#\J	.
=51	=51	=51	=51
4.BB/	4.BB/	(8dd\L	[4.bb\
.	.	8cc#\)	.
.	.	8b\J	.
=52	=52	=52	=52
4.F#\	4.F#\	[4.cc#\	8bb\L]
.	.	.	8aa\
.	.	.	8gg#\J
=53	=53	=53	=53
4.FF#/	4.FF#/	8cc#\L]	[4.aa\
.	.	8ff#\	.
.	.	8ee\J	.
=54	=54	=54	=54
4BB/	4BB/	(8dd#\L	4aa\]
.	.	8b\)	.
8C/	8C/	8ee\J	8gg\
=55	=55	=55	=55
4AA/	4AA/	4ee\	4ff#\
8BB/	8BB/	8dd#\	8ff#\
=56	=56	=56	=56
4.EE/	4.EE/	4.ee\	4.ee\
=57	=57	=57	=57
4.E\	8E\L	(8g/L	4.cc\
.	8F#\	8a/)	.
.	8E\J	8g/J	.
=58	=58	=58	=58
4.D\	8D\L	(8f#/L	4.b\
.	8E\	8g/)	.
.	8D\J	8f#/J	.
=59	=59	=59	=59
4.C/	8C/L	(8e/L	4.a/
.	8D/	8f#/)	.
.	8C/J	8e/J	.
=60	=60	=60	=60
4.BB/	4.BB/	4.d#/	4.b\
=61	=61	=61	=61
4.E\	4.E\	4.ee\	4.gg\
=62	=62	=62	=62
4.BB/	4.BB/	4.dd#\	4.ff#\
=63	=63	=63	=63
4.E\	4.E\	4.ee\	4.gg\
=64	=64	=64	=64
4BB/	4.BB/	4.dd#\	4ff#\
8B\	.	.	8ff#\
=65	=65	=65	=65
(8G\L	4.r	4.r	(8bb\L
8F#\)	.	.	8aa\)
8E\J	.	.	8gg\J
=66	=66	=66	=66
(8F#\L	4.r	8r	(8aa\L
8E\)	.	8r	8gg\)
8D\J	.	8b\	8ff#\J
=67	=67	=67	=67
(8C/L	4.r	(8ee\L	4gg\
8BB/)	.	8dd\)	.
8AA/J	.	8cc\J	8r
=68	=68	=68	=68
(8BB/L	4.r	(8dd\L	8r
8AA/)	.	8cc\)	8r
8GG/J	.	8b\J	8ee\
=69	=69	=69	=69
4.FF#/	4.r	4cc#\	(8aa\L
.	.	.	8gg\)
.	.	8dd#\	8ff#\J
=70	=70	=70	=70
4EE/	8r	(8ee\L	(8gg\L
.	8r	8ff#\)	8ff#\)
8E\	8E\	8gg\J	8ee\J
=71	=71	=71	=71
(8B\L	(8B\L	4ff#\	4dd#\
8A\)	8A\)	.	.
8G\J	8G\J	8gg\	8ee\
=72	=72	=72	=72
(8A\L	(8A\L	4ff#\	4ee\
8G\)	8G\)	.	.
8F#\J	8F#\J	8ff#\	8dd#\
=73	=73	=73	=73
(8G\L	(8G\L	4ee\	4ee\
8F#\)	8F#\)	.	.
8E\J	8E\J	8r	8r
=74	=74	=74	=74
4.r	4.r	(8gg\L	(8ee\L
.	.	8ff#\)	8dd\)
.	.	8ee\J	8cc#\J
=75	=75	=75	=75
(8A\L	(8A\L	4.r	4.r
8G\)	8G\)	.	.
8F#\J	8F#\J	.	.
=76	=76	=76	=76
4.r	4.r	(8aa\L	(8ff#\L
.	.	8gg\)	8ee\)
.	.	8ff#\J	8dd\J
=77	=77	=77	=77
(8B\L	(8B\L	4.r	4.r
8A\)	8A\)	.	.
8G\J	8G\J	.	.
=78	=78	=78	=78
4.r	4.r	(8bb\L	(8gg\L
.	.	8aa\)	8ff#\)
.	.	8gg\J	8ee\J
=79	=79	=79	=79
(8c\L	(8c\L	4.r	4.r
8B\)	8B\)	.	.
8A\J	8A\J	.	.
=80	=80	=80	=80
4.r	4.r	(8ccc\L	(8aa\L
.	.	8bb\)	8gg\)
.	.	8aa\J	8ff#\J
=81	=81	=81	=81
(8d\L	(8d\L	4.r	4.r
8c\)	8c\)	.	.
8B\J	8B\J	.	.
=82	=82	=82	=82
4.r	4.r	(8ddd\L	(8bb\L
.	.	8ccc\)	8aa\)
.	.	8bb\J	8gg\J
=83	=83	=83	=83
4D\	4D\	4aa\	(8ff#\L
.	.	.	8dd\)
8BB/	8BB/	8bb\	8gg\J
=84	=84	=84	=84
4C/	4C/	4aa\	4gg\
8D\	8D\	8aa\	8ff#\
=85	=85	=85	=85
8GG\L	8GG\L	4.bb\	4gg\
8G\	8G\	.	.
8F#\J	8F#\J	.	8dd\
=86	=86	=86	=86
4.E\	(8E\L	4.r	(8g/L
.	8F#\)	.	8a/)
.	8G\J	.	8b/J
=87	=87	=87	=87
4.F#\	(8F#\L	4.r	(8a/L
.	8G\)	.	8b/)
.	8A\J	.	8cc/J
=88	=88	=88	=88
(8G\L	(8G\L	4.r	(8b/L
8A\)	8A\)	.	8a/)
8B\J	8B\J	.	8g/J
=89	=89	=89	=89
(8c\L	(8c\L	8r	4ee\
8A\)	8A\)	8r	.
8B\J	8B\J	8bb\	8dd#\
=90	=90	=90	=90
8G\L	8G\L	(8ee\L	4ee\
8F#\	8F#\	8ff#\)	.
8E\J	8E\J	8gg\J	8ee\
=91	=91	=91	=91
4.BB/	4.BB/	(8ff#\L	4ee\
.	.	8gg\)	.
.	.	8aa\J	8dd#\
=92	=92	=92	=92
4.E\	4.E\	(8gg\L	4.ee\
.	.	8ff#\)	.
.	.	8ee\J	.
=93	=93	=93	=93
8r	8r	4bb\	(8dd\L
8r	8r	.	8ee\)
8f#\	8f#\	8aa#\	8ff#\J
=94	=94	=94	=94
4.B\	(8B\L	4.bb\	4gg\
.	8c#\)	.	.
.	8d\J	.	8ff#\
=95	=95	=95	=95
4.c#\	(8c#\L	4.aa#\	(8ee\L
.	8d\)	.	8dd\)
.	8e\J	.	8cc#\J
=96	=96	=96	=96
4.B\	8d\L	4.bb\	4.dd\
.	8c#\	.	.
.	8d\J	.	.
=97	=97	=97	=97
4.B\	8B\L	(8dd\L	4.gg\
.	8c#\	8ee\)	.
.	8B\J	8dd\J	.
=98	=98	=98	=98
4.A\	8A\L	(8cc#\L	4.ff#\
.	8B\	8dd\)	.
.	8A\J	8cc#\J	.
=99	=99	=99	=99
4.G\	8G\L	(8b\L	4.ee\
.	8A\	8cc#\)	.
.	8G\J	8b\J	.
=100	=100	=100	=100
4.F#\	4.F#\	4.a#/	4.ff#\
=101	=101	=101	=101
4.D\	4.D\	(8f#/L	(8ff#\L
.	.	8e/)	8gg\)
.	.	8f#/J	8ff#\J
=102	=102	=102	=102
4E\	4E\	(8g#/L	(8ee\L
.	.	8a#/)	8ff#\)
8BB/	8BB/	8b/J	8dd\J
=103	=103	=103	=103
4F#\	4F#\	4b\	4cc#\
8FF#/	8FF#/	8a#/	8cc#\
=104	=104	=104	=104
8BB\L	4.BB/	4.b\	4b\
8B\	.	.	.
8A\J	.	.	8ff#\
=105	=105	=105	=105
8G\L	4.r	4.r	(8bb\L
8F#\	.	.	8aa\)
8E\J	.	.	8gg\J
=106	=106	=106	=106
8F#\L	4.r	8r	(8aa\L
8E\	.	8r	8gg\)
8D\J	.	8b\	8ff#\J
=107	=107	=107	=107
8C/L	4.r	(8ee\L	4gg\
8BB/	.	8dd\)	.
8AA/J	.	8cc\J	8r
=108	=108	=108	=108
8BB/L	4.r	(8dd\L	8r
8AA/	.	8cc\)	8r
8GG/J	.	8b\J	8ee\
=109	=109	=109	=109
4.FF#/	4.r	4cc#\	(8aa\L
.	.	.	8gg\)
.	.	8dd#\	8ff#\J
=110	=110	=110	=110
4EE/	8r	(8ee\L	(8gg\L
.	8r	8ff#\)	8ff#\)
8E\	8E\	8gg\J	8ee\J
=111	=111	=111	=111
8B\L	8B\L	4ff#\	4dd#\
8A\	8A\	.	.
8G\J	8G\J	8gg\	8ee\
=112	=112	=112	=112
8A\L	8A\L	4ff#\	4ee\
8G\	8G\	.	.
8F#\J	8F#\J	8ff#\	8dd#\
=113	=113	=113	=113
8G\L	8G\L	4ee\	4ee\
8F#\	8F#\	.	.
8E\J	8E\J	8e/	8g/
=114	=114	=114	=114
4.BB/	4B\	4e/	4.f#/
.	8BB/	8d#/	.
=115	=115	=115	=115
4E\	4E\	4e/	4e/
8r	8r	8r	8r
=116	=116	=116	=116
4BB/	4BB/	4d#/	4f#/
8r	8r	8r	8r
=117	=117	=117	=117
4EE/	4EE/	4e/	4g#/
8r	8r	8r	8r
==	==	==	==
*-	*-	*-	*-
!!!CDT: 1653/2/17/-1713/1/8
!!!OCY: Italia
!!!ODE: Queen Christina Alexandra of Sweden
!!!ODT: 1681//
!!!OPC: Roma; Rome
!!!AGN: trio sonata
!!!AST: baroque, chamber
!!!AMT: simple triple
!!!YOR1: J. Joachim & F. Chrysander (eds.) Les Oeuvre de Arcangelo Corelli
!!!YOR2: London: Augener & Co. 1871
!!!YOY: 1871
!!!AIN: archl cello organ violn
!!!EEV: 1.1
!!!RDT: 1990 February 15
!!!YER: 1994 December 14
!!!EMD: 1996 July 9
!!!YEN: United States of America
!!!EFL: 4/4
!!!ENC: Frances Bennion & Steven Rasmussen
!!!EED: W.B. Hewlett
!!!VTS: 3482626510
